svg/boy_1525y_outline.svg

<?xml version="1.0" encoding="UTF-8" standalone="no"?>
<!-- Created with Inkscape (http://www.inkscape.org/) -->

<svg
   xmlns:dc="http://purl.org/dc/elements/1.1/"
   xmlns:cc="http://creativecommons.org/ns#"
   xmlns:rdf="http://www.w3.org/1999/02/22-rdf-syntax-ns#"
   xmlns:svg="http://www.w3.org/2000/svg"
   xmlns="http://www.w3.org/2000/svg"
   xmlns:sodipodi="http://sodipodi.sourceforge.net/DTD/sodipodi-0.dtd"
   xmlns:inkscape="http://www.inkscape.org/namespaces/inkscape"
   id="svg8"
   height="48"
   viewBox="0 0 12.7 12.7"
   width="48"
   version="1.1"
   sodipodi:docname="boy_1525y_outline.svg"
   inkscape:version="0.92.2 (5c3e80d, 2017-08-06)">
  <defs
     id="defs8" />
  <sodipodi:namedview
     pagecolor="#ffffff"
     bordercolor="#666666"
     borderopacity="1"
     objecttolerance="10"
     gridtolerance="10"
     guidetolerance="10"
     inkscape:pageopacity="0"
     inkscape:pageshadow="2"
     inkscape:window-width="1920"
     inkscape:window-height="1017"
     id="namedview6"
     showgrid="false"
     inkscape:zoom="4.000000013"
     inkscape:cx="-11.92089639"
     inkscape:cy="65.13456337"
     inkscape:window-x="-8"
     inkscape:window-y="-8"
     inkscape:window-maximized="1"
     inkscape:current-layer="svg8"
     showguides="true"
     inkscape:guide-bbox="true"
     inkscape:object-paths="true" />
  <title
     id="title4753">UIO-icon</title>
  <metadata
     id="metadata5">
    <rdf:RDF>
      <cc:Work
         rdf:about="">
        <dc:format>image/svg+xml</dc:format>
        <dc:type
           rdf:resource="http://purl.org/dc/dcmitype/StillImage" />
        <dc:title>UIO-icon</dc:title>
        <dc:creator>
          <cc:Agent>
            <dc:title>Joaquín Urbano</dc:title>
          </cc:Agent>
        </dc:creator>
        <dc:rights>
          <cc:Agent>
            <dc:title>GPL</dc:title>
          </cc:Agent>
        </dc:rights>
      </cc:Work>
    </rdf:RDF>
  </metadata>
  <path
     style="fill:#333333;fill-rule:evenodd;stroke-width:3.7795276642"
     d="m 23.921875,4.673828125 c -8.90218881,0.02454838 -10.28586428,5.203030143 -10.2109375,15.785156255 0.0114374,0.70846557 0.0392252,2.39329912 1.58789062,2.63085937 0.15654106,2.24804791 0.85638462,4.34174836 2.46679688,5.35546875 2.62482314,1.65233268 3.92592144,2.73857773 6.23632812,2.81054688 1.58227615,0.004732 3.60593276,-1.4250807 5.7890625,-2.79101563 1.67336986,-1.04716404 2.64133049,-3.07220028 2.89257813,-5.25976563 1.58483696,0.0948998 1.30288777,-1.71203055 1.43554687,-2.74609374 C 34.16962742,8.604088881 32.6698141,4.68329244 23.95898438,4.673828125 c -0.0138025,-9.8589e-5 -0.024293,0 -0.0371094,0 z m 1.0495e-4,0.514000239 c 5.56555113,0.0403964 8.15832937,1.325404618 9.26720188,7.322708786 0.75238021,5.83250924 0.42103475,7.23842724 0.30037245,9.4170921 -0.0412823,0.68923798 -0.31437997,0.74045449 -0.83641389,0.75433147 l 0.0304533,-9.01594512 c -0.93937039,-0.33051434 -2.00456775,-0.62177604 -2.546875,-0.49414062 -0.0776597,0.21560277 -0.0820053,0.43088161 0.009766,0.64648438 -0.47527385,-0.20597621 -1.02934627,-0.54456251 -1.4140625,-0.59960938 -0.0870324,0.12447466 -0.18323845,0.12493666 -0.23828126,0.69726562 L 26.3085941,12.4550781 c -0.009096,0.22253322 -0.059628,0.36267504 0.0917969,0.90625 -0.90275734,-1.11526912 -1.52226886,-1.55244997 -2.08984374,-1.86328124 -0.14936315,0.35114448 -0.068453,0.81729128 -0.0234375,1.265625 -0.80055368,-0.94140031 -1.45749227,-1.3504636 -2.22460938,-1.890625 -0.26054641,0.15356261 0.10109686,1.40733594 0.17382812,2.12890624 -0.89675659,-0.41713363 -2.15501596,-1.26489225 -3.85742187,-2.72265624 -0.0676108,0.67462278 0.001275,1.21397859 -0.3125,2.13476562 -0.0494857,-0.43501037 -0.27008484,-0.86303559 -0.52148437,-0.625 -0.51444561,0.5798164 -0.95821065,1.3312305 -1.47265626,2.38476562 -0.40091026,0.16659408 -0.7164874,0.38397702 -0.8125,0.85546876 l -0.007188,7.55206036 C 14.75023169,22.40643875 14.27041213,22.27599803 14.22353715,20.227973 l 0.27675074,-5.7408022 C 14.87646007,8.316178481 17.32112423,5.180473101 23.92197995,5.187828364 Z M 18.84375,11.27148438 c 0.9557879,0.95989937 2.20812747,1.90193551 3.84375,2.48242187 0.28663733,0.10172829 -0.41363299,-1.97866481 -0.11768009,-1.89087231 0.3604797,0.10693566 1.75012781,1.82053386 2.11875275,1.90567435 0.32820789,0.0758082 -0.0687989,-1.41666821 0.0954723,-1.38115057 0.37342896,0.0651921 1.5116624,1.79962023 1.88137775,1.84032716 0.29978501,0.0330048 0.22114338,-0.7146335 0.22114338,-0.7146335 0.31025347,0.0170754 1.52918148,1.11116375 1.82856524,1.1086473 0.30550701,-0.002568 0.0986507,-0.65868421 0.38861437,-0.68248332 0.33834736,-0.0277732 0.5686854,0.33743721 1.1380214,0.62695313 0.52540133,0.32922248 0.20532189,-0.97275386 0.45505842,-0.90674773 0.31114557,0.0575079 1.09127859,0.23057742 1.47027463,0.34276434 0.0440403,2.45464157 -0.0507891,5.70130958 -0.0363159,8.15637167 0.1767767,2.16734036 -0.70698448,4.67527872 -2.48213794,5.78577248 -1.97424176,1.23530596 -4.22685624,2.79961354 -5.65774086,2.79497991 -2.08936281,-0.0591527 -3.53408244,-1.20717485 -5.90778256,-2.70166836 -1.67711797,-1.05567883 -2.34344908,-3.96673536 -2.33511373,-6.29052163 l 0.0221755,-6.18224189 c 0.00761,-0.68968839 0.32155274,-0.82806303 0.52475946,-0.92655745 0.12968939,-0.066915 1.11147728,-1.86466918 1.28577235,-2.13352295 0.16588702,-0.0292385 0.28048151,1.15047192 0.44682764,1.11358036 0.52411449,-0.1222882 0.70058269,-1.79043897 0.81620589,-2.34709286 z m 1.38671875,5.84570312 c -0.55109195,2.754e-4 -0.99777149,0.44695493 -0.99804687,0.99804688 2.7538e-4,0.55109193 0.44695492,0.99777147 0.99804687,0.99804687 0.55109195,-2.754e-4 0.99777149,-0.44695494 0.99804687,-0.99804687 -2.7538e-4,-0.55109195 -0.44695492,-0.99777148 -0.99804687,-0.99804688 z m 7.49609375,0 c -0.55185454,-8.0363e-4 -0.99972474,0.44619182 -1,0.99804688 2.7527e-4,0.55185504 0.44814546,0.9988505 1,0.99804687 0.55109195,-2.754e-4 0.99777148,-0.44695494 0.99804688,-0.99804687 -2.754e-4,-0.55109196 -0.44695492,-0.99777148 -0.99804688,-0.99804688 z m -3.83789062,4.609375 c -0.4629955,0.009492 -0.81443336,0.0899418 -0.81054688,0.18554688 -0.001701,0.10241 0.40199235,0.18560055 0.90039062,0.18554687 0.4983983,5.368e-5 0.90209127,-0.0831368 0.90039063,-0.18554687 0.001701,-0.10241003 -0.40199231,-0.18560056 -0.90039063,-0.18554688 -0.0299292,-3.0737e-4 -0.0599145,-3.0737e-4 -0.0898437,0 z m 0.0644531,3.19921875 c -1.81521164,0.004718 -3.22042306,0.0602092 -3.21484375,0.12695313 -0.001079,0.0701248 1.54900185,0.12698449 3.4609375,0.12695312 1.91117285,-8.22e-6 3.46006323,-0.0568562 3.45898437,-0.12695312 0.001079,-0.0700969 -1.54781142,-0.12694491 -3.45898437,-0.12695313 -0.0820053,-1.0705e-4 -0.16408846,-1.0705e-4 -0.24609375,0 z M 23.03125,35.34570312 c -0.4787447,0 -0.90541819,0.10341745 -1.28320312,0.30859376 -0.37778494,0.20191953 -0.67242631,0.48159941 -0.88085938,0.83984374 -0.2051763,0.35824434 -0.30664062,0.75435003 -0.30664062,1.1875 h 1.41601562 c 0,-0.35824433 0.0910586,-0.647031 0.2734375,-0.86523437 0.1856357,-0.22146014 0.43864936,-0.33203125 0.7578125,-0.33203125 0.29636577,0 0.52401218,0.0910586 0.68359375,0.2734375 0.15958157,0.17912217 0.24023437,0.42628113 0.24023437,0.7421875 0,0.23123044 -0.0774007,0.47513731 -0.23046874,0.73242188 -0.14981127,0.25728456 -0.38331239,0.5590796 -0.69921876,0.90429687 l -2.30078124,2.453125 v 0.96679687 H 25.578125 v -1.13867187 h -3.05859375 l 1.6171875,-1.70507813 c 0.44292027,-0.48525823 0.75512106,-0.91063275 0.9375,-1.27539062 0.18237894,-0.36475787 0.2734375,-0.72248795 0.2734375,-1.07421875 0,-0.64158304 -0.20423229,-1.13850357 -0.61132813,-1.49023437 C 24.33248905,35.52131607 23.76402251,35.34570312 23.03125,35.34570312 Z M 8.6015625,35.43359375 5.65625,36.48828125 v 1.1484375 l 1.685546875,-0.52148437 v 5.44140624 h 1.41015625 v -7.12304687 z m 3.08789062,0.009766 -0.41015624,3.61523437 1.12304687,0.27929687 0.13671875,-0.12695312 c 0.20843307,-0.1758654 0.48095928,-0.265625 0.81640625,-0.265625 0.36475787,0 0.64508723,0.10927215 0.84375,0.32421875 0.19866277,0.2149466 0.29882812,0.5238953 0.29882813,0.92773437 0,0.42012291 -0.087157,0.74533207 -0.25976563,0.9765625 -0.17260863,0.22797367 -0.41716499,0.34179688 -0.73632813,0.34179688 -0.28659546,0 -0.52009658,-0.0813023 -0.69921874,-0.24414062 -0.17586541,-0.16609511 -0.27928285,-0.39699361 -0.30859376,-0.69335938 h -1.39648437 c 0.0130271,0.40383907 0.12620079,0.76417176 0.33789063,1.08007812 0.2149466,0.31590637 0.50503223,0.56046273 0.87304687,0.73632813 0.36801464,0.17260863 0.76737242,0.25976563 1.19726563,0.25976563 0.49177177,-1e-8 0.91779577,-0.10016536 1.27929687,-0.29882813 0.3615011,-0.20191954 0.63988201,-0.4822489 0.83203125,-0.84375 0.195406,-0.36475787 0.29296875,-0.77712402 0.29296875,-1.23632813 0,-0.75556987 -0.1918734,-1.34354897 -0.57617187,-1.76367187 -0.38429848,-0.4201229 -0.91634253,-0.63085937 -1.59375,-0.63085937 -0.37778494,0 -0.73486554,0.0904091 -1.0703125,0.26953124 l 0.17578124,-1.52929687 h 2.83007813 v -1.17773437 z m 15.37695313,0 -0.41015625,3.61523437 1.125,0.27929687 0.13671875,-0.12695312 c 0.20843307,-0.1758654 0.47900616,-0.265625 0.81445313,-0.265625 0.36475787,0 0.64704035,0.10927215 0.84570312,0.32421875 0.19866277,0.2149466 0.29882813,0.5238953 0.29882812,0.92773437 0,0.42012291 -0.087157,0.74533207 -0.25976562,0.9765625 -0.17260863,0.22797367 -0.41911811,0.34179688 -0.73828125,0.34179688 -0.28659547,0 -0.51814346,-0.0813023 -0.69726563,-0.24414062 -0.1758654,-0.16609511 -0.27928284,-0.39699361 -0.30859374,-0.69335938 H 26.4765625 c 0.0130271,0.40383907 0.12424766,0.76417176 0.3359375,1.08007812 0.2149466,0.31590637 0.50698536,0.56046273 0.875,0.73632813 0.36801464,0.17260863 0.76737242,0.25976563 1.19726562,0.25976563 0.49177178,-1e-8 0.91779578,-0.10016536 1.27929688,-0.29882813 0.3615011,-0.20191954 0.63792889,-0.4822489 0.83007812,-0.84375 0.19540601,-0.36475787 0.29296875,-0.77712402 0.29296876,-1.23632813 0,-0.75556987 -0.19187341,-1.34354897 -0.57617188,-1.76367187 -0.38429847,-0.4201229 -0.9143894,-0.63085937 -1.59179688,-0.63085937 -0.37778493,0 -0.73486553,0.0904091 -1.0703125,0.26953124 l 0.17578126,-1.52929687 h 2.828125 v -1.17773437 z m 4.65234375,0 2.33398438,4.53320312 v 2.58007812 h 1.49023437 V 39.9765625 l 2.3359375,-4.53320312 h -1.60351563 l -1.48046874,3.20507812 -1.47070313,-3.20507812 z m 8.4609375,1.73046874 c -0.62855597,1e-8 -1.13848487,0.15674989 -1.52929688,0.47265626 -0.38755523,0.3126496 -0.58203124,0.70290059 -0.58203124,1.171875 0,0.80442137 0.6296068,1.33971752 1.88671874,1.60351562 0.37778494,0.0781624 0.65096064,0.16661836 0.8203125,0.26757812 0.17260864,0.097703 0.2578125,0.23364137 0.2578125,0.40625 0,0.16609511 -0.0689434,0.30203347 -0.20898437,0.40625 -0.1367842,0.10095977 -0.34101649,0.15039063 -0.61132813,0.15039063 -0.28985223,0 -0.52075074,-0.0656913 -0.69335937,-0.19921875 C 39.34692262,41.31959757 39.25326144,41.12577104 39.24023438,40.875 h -1.33789063 c 0,0.31916314 0.0975628,0.61770608 0.29296875,0.89453125 0.195406,0.2735684 0.46468012,0.49080906 0.80664062,0.65039063 0.34521727,0.1563248 0.73872036,0.234375 1.18164063,0.234375 0.65461011,-10e-9 1.18990625,-0.14894674 1.60351563,-0.4453125 0.41360937,-0.29962254 0.61914062,-0.68987353 0.61914062,-1.171875 0,-0.67415071 -0.37334105,-1.1483066 -1.11914062,-1.421875 -0.24100074,-0.0879327 -0.53694108,-0.1659829 -0.88867188,-0.234375 -0.3517308,-0.0716489 -0.60214186,-0.15360065 -0.75195312,-0.24804688 -0.14655451,-0.097703 -0.22070313,-0.2264877 -0.22070313,-0.3828125 0,-0.1660951 0.0650418,-0.30268295 0.1953125,-0.41015625 0.13027067,-0.1074733 0.31499041,-0.16015625 0.55273437,-0.16015625 0.27682517,0 0.48105746,0.0656913 0.61132813,0.19921875 0.13027067,0.13027067 0.1953125,0.29612734 0.1953125,0.49804687 h 1.41210937 c 0,-0.50479883 -0.20162967,-0.91456238 -0.60546874,-1.23046874 -0.40058231,-0.31590637 -0.93652794,-0.47265626 -1.60742188,-0.47265589 z m -23.3125,1.76757813 v 1.13867187 h 2.75 v -1.13867187 z"
     transform="scale(0.2645833333)"
     id="rect4852-7"
     inkscape:connector-curvature="0"
     sodipodi:nodetypes="cccccccccccccccccccccccccccccccccccscccccsccccccccscccccccccccccccccccccccccccscccccscsccccccccsscsccccccccccccssscscccccsccssscccccccccssscscccccsccssscccccccccccccccscsccscssccccscscccsssccccsccccc" />
</svg>

<svg width="48" height="48" viewBox="0 0 48 48" fill="none" xmlns="http://www.w3.org/2000/svg">
<path fill-rule="evenodd" clip-rule="evenodd" d="M23.9217 4.67363C15.0196 4.69818 13.6358 9.87656 13.7108 20.4584C13.7223 21.1669 13.75 22.8517 15.2987 23.0893C15.4552 25.3373 16.1551 27.4309 17.7655 28.4447C20.3902 30.097 21.6913 31.1833 24.0017 31.2552C25.584 31.2599 27.6075 29.8301 29.7907 28.4642C31.4641 27.417 32.432 25.3921 32.6833 23.2045C34.2681 23.2994 33.9862 21.4925 34.1188 20.4584C34.1698 8.60358 32.6698 4.68263 23.9589 4.67363C23.9451 4.67353 23.9346 4.67363 23.9218 4.67363H23.9217ZM23.9218 5.18762C29.4873 5.22802 32.08 6.513 33.1889 12.5102C33.9413 18.3427 33.6099 19.7485 33.4892 21.9272C33.448 22.6164 33.1749 22.6677 32.6528 22.6815L32.6833 13.6657C31.7439 13.3352 30.6787 13.044 30.1364 13.1716C30.0588 13.3872 30.0544 13.6025 30.1462 13.8181C29.6709 13.6121 29.1169 13.2735 28.7321 13.2185C28.6451 13.3429 28.5489 13.3434 28.4938 13.9157L26.3089 12.4548C26.2998 12.6773 26.2492 12.8174 26.4007 13.361C25.4979 12.2457 24.8784 11.8086 24.3109 11.4977C24.1615 11.8489 24.2424 12.315 24.2875 12.7633C23.4869 11.8219 22.83 11.4128 22.0629 10.8727C21.8023 11.0263 22.164 12.28 22.2367 13.0016C21.34 12.5845 20.0817 11.7367 18.3794 10.2789C18.3117 10.9535 18.3806 11.4929 18.0669 12.4137C18.0174 11.9787 17.7968 11.5507 17.5454 11.7887C17.0309 12.3685 16.5872 13.1199 16.0727 14.1735C15.6718 14.3401 15.3562 14.5575 15.2602 15.0289L15.253 22.581C14.749 22.406 14.269 22.276 14.223 20.228L14.4998 14.4873C14.8748 8.31653 17.3198 5.18087 23.9207 5.18817L23.9218 5.18762ZM18.8439 11.2707C19.7996 12.2306 21.0519 13.1726 22.6876 13.7531C22.9743 13.8548 22.274 11.7744 22.5699 11.8622C22.9304 11.9692 24.32 13.6827 24.6887 13.7679C25.0169 13.8437 24.6199 12.3512 24.7842 12.3867C25.1576 12.4519 26.2959 14.1863 26.6656 14.227C26.9653 14.26 26.8867 13.5124 26.8867 13.5124C27.1969 13.5295 28.4159 14.6236 28.7153 14.621C29.0208 14.6184 28.8139 13.9623 29.1039 13.9385C29.4422 13.9107 29.6726 14.2759 30.2419 14.5654C30.7673 14.8947 30.4472 13.5927 30.6969 13.6587C31.0081 13.7162 31.7882 13.8893 32.1672 14.0015C32.2112 16.456 32.1164 19.7027 32.1309 22.1578C32.3077 24.325 31.4239 26.833 29.6488 27.9435C27.6746 29.1788 25.422 30.7431 23.9912 30.7385C21.9018 30.6793 20.4571 29.5313 18.0835 28.0368C16.4064 26.9811 15.7401 24.0701 15.7484 21.7464L15.7706 15.5642C15.7782 14.8746 16.0921 14.7362 16.2953 14.6377C16.425 14.5708 17.4068 12.773 17.5811 12.5042C17.747 12.475 17.8616 13.6547 18.0279 13.6178C18.552 13.4955 18.7285 11.8274 18.8441 11.2707H18.8439ZM20.2305 17.1164C19.6795 17.1166 19.2328 17.5633 19.2325 18.1144C19.2328 18.6655 19.6795 19.1122 20.2305 19.1124C20.7816 19.1122 21.2283 18.6655 21.2286 18.1144C21.2283 17.5633 20.7816 17.1167 20.2305 17.1164ZM27.7266 17.1164C27.1747 17.1156 26.7268 17.5626 26.7266 18.1144C26.7268 18.6663 27.1747 19.1132 27.7266 19.1124C28.2776 19.1122 28.7243 18.6655 28.7246 18.1144C28.7243 17.5633 28.2776 17.1167 27.7266 17.1164ZM23.8887 21.7257C23.4257 21.7352 23.0743 21.8157 23.0782 21.9113C23.0765 22.0137 23.4801 22.0969 23.9785 22.0968C24.4769 22.0969 24.8806 22.0137 24.8789 21.9113C24.8806 21.8089 24.4769 21.7257 23.9785 21.7257C23.9486 21.7254 23.9186 21.7254 23.8887 21.7257ZM23.9532 24.9249C22.138 24.9296 20.7328 24.9851 20.7384 25.0518C20.7373 25.1219 22.2874 25.1788 24.1992 25.1788C26.1104 25.1788 27.6593 25.1219 27.6582 25.0518C27.6593 24.9817 26.1104 24.9249 24.1992 24.9249C24.1172 24.9248 24.0352 24.9248 23.9532 24.9249ZM23.0312 35.3457C22.5524 35.3457 22.1258 35.4492 21.748 35.6543C21.3702 35.8562 21.0756 36.1359 20.8671 36.4942C20.662 36.8524 20.5605 37.2485 20.5605 37.6816H21.9765C21.9765 37.3234 22.0675 37.0346 22.2499 36.8164C22.4356 36.595 22.6886 36.4844 23.0077 36.4844C23.3041 36.4844 23.5317 36.5755 23.6913 36.7578C23.8509 36.937 23.9315 37.1841 23.9315 37.5C23.9315 37.7312 23.8541 37.9752 23.7011 38.2324C23.5512 38.4897 23.3178 38.7915 23.0018 39.1367L20.7011 41.5898V42.5566H25.579V41.4179H22.5205L24.1376 39.7128C24.5805 39.2276 24.8927 38.8022 25.0751 38.4374C25.2575 38.0727 25.3486 37.7149 25.3486 37.3632C25.3486 36.7217 25.1443 36.2248 24.7372 35.8731C24.3332 35.5211 23.7652 35.3461 23.0323 35.3461L23.0312 35.3457ZM8.60235 35.4337L5.65698 36.4877V37.6361L7.34246 37.1146V42.556H8.75264V35.4331L8.60235 35.4337ZM11.6902 35.4435L11.2801 39.0587L12.403 39.338L12.5398 39.211C12.7482 39.0351 13.0207 38.9454 13.3562 38.9454C13.7209 38.9454 14.0012 39.0547 14.1999 39.2696C14.3986 39.4846 14.4987 39.7935 14.4987 40.1973C14.4987 40.6174 14.4116 40.9427 14.239 41.1739C14.0663 41.4018 13.8218 41.5157 13.5026 41.5157C13.216 41.5157 12.9825 41.4344 12.8034 41.2715C12.6276 41.1054 12.5241 40.8746 12.4948 40.5782H11.0984C11.1114 40.982 11.2246 41.3423 11.4362 41.6583C11.6512 41.9742 11.9413 42.2187 12.3093 42.3946C12.6773 42.5672 13.0766 42.6544 13.5066 42.6544C13.9983 42.6544 14.4244 42.5542 14.7858 42.3555C15.1473 42.1536 15.4257 41.8733 15.6179 41.5118C15.8133 41.147 15.9108 40.7347 15.9108 40.2755C15.9108 39.5199 15.719 38.932 15.3347 38.5118C14.9504 38.0917 14.4183 37.881 13.7409 37.881C13.3631 37.881 13.006 37.9714 12.6706 38.1505L12.8464 36.6212H15.6764V35.4435H11.6902ZM27.067 35.4435L26.6569 39.0587L27.7818 39.338L27.9186 39.211C28.127 39.0351 28.3976 38.9454 28.733 38.9454C29.0978 38.9454 29.38 39.0547 29.5787 39.2696C29.7773 39.4846 29.8775 39.7935 29.8775 40.1973C29.8775 40.6174 29.7904 40.9427 29.6178 41.1739C29.4451 41.4018 29.1986 41.5157 28.8795 41.5157C28.5929 41.5157 28.3613 41.4344 28.1822 41.2715C28.0064 41.1054 27.9029 40.8746 27.8736 40.5782H26.4767C26.4897 40.982 26.6009 41.3423 26.8126 41.6583C27.0275 41.9742 27.3196 42.2187 27.6876 42.3946C28.0556 42.5672 28.4549 42.6544 28.8849 42.6544C29.3766 42.6544 29.8026 42.5542 30.1641 42.3555C30.5256 42.1536 30.8021 41.8733 30.9942 41.5118C31.1896 41.147 31.2872 40.7347 31.2872 40.2755C31.2872 39.5199 31.0953 38.932 30.711 38.5118C30.3267 38.0917 29.7966 37.881 29.1192 37.881C28.7415 37.881 28.3844 37.9714 28.049 38.1505L28.2247 36.6212H31.0528V35.4435H27.067ZM31.7193 35.4435L34.0532 39.9767V42.5567H35.5434V39.9768L37.8793 35.4436H36.2758L34.7953 38.6487L33.3246 35.4436L31.7193 35.4435ZM40.18 37.174C39.5515 37.174 39.0416 37.3307 38.6508 37.6466C38.2632 37.9593 38.0687 38.3495 38.0687 38.8185C38.0687 39.6229 38.6983 40.1582 39.9554 40.422C40.3332 40.5002 40.6064 40.5886 40.7757 40.6896C40.9483 40.7873 41.0335 40.9232 41.0335 41.0958C41.0335 41.2619 40.9646 41.3979 40.8245 41.5021C40.6878 41.603 40.4835 41.6525 40.2132 41.6525C39.9234 41.6525 39.6925 41.5868 39.5199 41.4532C39.3469 41.3202 39.2529 41.1263 39.2399 40.8753H37.902C37.902 41.1944 37.9996 41.493 38.195 41.7698C38.3904 42.0433 38.6596 42.2606 39.0016 42.4202C39.3468 42.5765 39.7403 42.6545 40.1832 42.6545C40.8378 42.6545 41.3731 42.5056 41.7867 42.2092C42.2003 41.9096 42.4058 41.5194 42.4058 41.0373C42.4058 40.3632 42.0325 39.8891 41.2867 39.6155C41.0457 39.5275 40.7498 39.4495 40.398 39.3811C40.0463 39.3094 39.7959 39.2275 39.6461 39.133C39.4996 39.0353 39.4254 38.9065 39.4254 38.7502C39.4254 38.5841 39.4905 38.4476 39.6207 38.3401C39.751 38.2326 39.9357 38.1799 40.1734 38.1799C40.4503 38.1799 40.6545 38.2456 40.7848 38.3791C40.915 38.5094 40.9801 38.6753 40.9801 38.8772H42.3922C42.3922 38.3724 42.1905 37.9626 41.7867 37.6467C41.3861 37.3308 40.8502 37.174 40.1793 37.174H40.18ZM16.8683 38.9416V40.0803H19.6183V38.9416H16.8683Z" fill="#333333"/>
</svg>
